X: 1
T: Morelli's Lesson
M: C|
L: 1/8
R: March
S: Thomas Nixon Jr./Joseph Long copybook (c. 1776-78, p. 91)
F: http://www.tunearch.org/wiki/Murillo%27s_Lesson 2016-8-9
Z: AK/Fiddler’s Companion
K: G
D2 |\
G2 GG GBAc | B2 BB Bdce | dgfe dcBA | G2 GG G2 dB |
G2 GG GBAc | B2 BB Bece | dgfe dcBA | G2 G>G G2 :|
|: Bc |\
d2 dd dgfe | d2 dd d2 Bc | dBGB dBGB | cAFA cAFA | BGEG BGEG |
A2 AA AcBA | G2 GG GBAc | B2 BB Bdce | dgfe dcBA | G2 GG G2 :| 
